src/assets/icons/address.svg

<svg width="24" height="24" viewBox="0 0 24 24" fill="none" xmlns="http://www.w3.org/2000/svg">
<path fill-rule="evenodd" clip-rule="evenodd" d="M9 10.6505C9 8.91026 10.4103 7.5 12.1505 7.5C13.89 7.5 15.3 8.91049 15.3 10.6505C15.3 12.3897 13.8897 13.8 12.1505 13.8C10.4105 13.8 9 12.39 9 10.6505ZM12.1505 9.3C11.4044 9.3 10.8 9.90437 10.8 10.6505C10.8 11.3954 11.4041 12 12.1505 12C12.8956 12 13.5 11.3956 13.5 10.6505C13.5 9.90413 12.8954 9.3 12.1505 9.3Z" fill="white"/>
<path fill-rule="evenodd" clip-rule="evenodd" d="M12.1496 4.8C8.92569 4.8 6.3 7.43775 6.3 10.707C6.3 12.7786 7.54341 14.9178 9.04321 16.6064C9.77971 17.4357 10.5439 18.117 11.1751 18.584C11.4917 18.8182 11.7614 18.9885 11.9666 19.0956C12.0511 19.1398 12.1112 19.166 12.1496 19.1813C12.188 19.166 12.248 19.1398 12.3326 19.0956C12.5378 18.9884 12.8075 18.8182 13.1242 18.584C13.7555 18.117 14.5198 17.4356 15.2564 16.6064C16.7564 14.9177 18 12.7786 18 10.707C18 7.4379 15.3736 4.8 12.1496 4.8ZM4.5 10.707C4.5 6.45819 7.91709 3 12.1496 3C16.3819 3 19.8 6.45804 19.8 10.707C19.8 13.4369 18.2077 15.9943 16.6021 17.8018C15.786 18.7206 14.93 19.4872 14.1945 20.0311C13.8278 20.3024 13.4775 20.5284 13.166 20.6911C12.8982 20.8309 12.5216 21 12.1496 21C11.7776 21 11.4009 20.8309 11.1331 20.691C10.8217 20.5284 10.4714 20.3024 10.1047 20.0311C9.36926 19.4871 8.51344 18.7205 7.69738 17.8017C6.09205 15.9942 4.5 13.4369 4.5 10.707Z" fill="white"/>
</svg>

<svg width="24" height="24" fill="none" xmlns="http://www.w3.org/2000/svg"><path fill-rule="evenodd" clip-rule="evenodd" d="M9 10.65a3.15 3.15 0 1 1 6.3 0 3.15 3.15 0 0 1-6.3 0m3.15-1.35a1.35 1.35 0 1 0 0 2.7 1.35 1.35 0 0 0 0-2.7" fill="#fff"/><path fill-rule="evenodd" clip-rule="evenodd" d="M12.15 4.8c-3.224 0-5.85 2.638-5.85 5.907 0 2.072 1.243 4.21 2.743 5.9.737.829 1.5 1.51 2.132 1.977a6 6 0 0 0 .792.512q.125.064.183.085.056-.02.183-.085a6 6 0 0 0 .791-.512 14.5 14.5 0 0 0 2.132-1.978C16.756 14.918 18 12.78 18 10.707c0-3.27-2.626-5.907-5.85-5.907M4.5 10.707C4.5 6.458 7.917 3 12.15 3c4.232 0 7.65 3.458 7.65 7.707 0 2.73-1.592 5.287-3.198 7.095a16.3 16.3 0 0 1-2.408 2.23 8 8 0 0 1-1.028.66c-.268.139-.644.308-1.016.308s-.75-.17-1.017-.309a8 8 0 0 1-1.028-.66 16.3 16.3 0 0 1-2.408-2.23C6.092 15.995 4.5 13.438 4.5 10.708" fill="#fff"/></svg>
